X: 508
T:Kilmovee Jig
T:Pauline O'Neill's Fancy
M:6/8
L:1/8
S:from Mike Rafferty who had it from Pauline O'Neill
R:Jig
N:Posted to the woodenflute mailing list April 2002
Z:Tom Madden
K:D
D|:G2G B2B|GAG AGE|DEG Bdg|ege dBA|G2G B2B|
ded AGE|DEG Bdg|1 edB G2 D:|2 edB G2d|
|g2g/d/ edB|AGE GED|GBd gzg|eag fed|Bze dBA|
G2G AGE|DEG Bdg|1 edB G2 d:|2 edB G3||
<end>
<start>
